X:1
T:Vårt røde flagg
T:Vårt røde flagg
T:John Becher
T:F. Szabò
C:F. Szabò
%%score [ 1 2 3 4 ]
L:1/8
Q:1/4=92
M:6/8
K:F
V:1 treble-8 nm="Tenor"
V:2 treble-8 nm="Tenor"
V:3 bass nm="Bass"
V:4 bass nm="Bass"
V:1
"^Andante con moto"!p! A3 A3 | A3 A3 |!<(! c2 c c2 c!<)! |!>(! c3 c2 c!>)! |!p! A3 A3 | A3 A3 | %6
w: Da de|så ham|tok hans ka- me-|ra- ter en|duk og|dek- ket|
 z2 G!<(! B3- | B2 c!<)!!>(! d2 c | A3!>)!!p! A2 A | A3 A3 |!<(! c2 c c2 c!<)! |!>(! c3 c3!>)! | %12
w: hans søn-|* der- skut- te|an- sikt, men|du- ken|snart blev far- vet|av hans|
!p! A3 A2 A | A2 A A3 | z2 G!<(! (B3- | B2 _c B2) c!<)! |!mf! f3 _e3 | d3- d2 c | f2 f _e2 e | %19
w: blod, av hans|rø- de blod,|hans blod.|_ _ _ Så|lå han|der, _ han|had- de in- tet|
 d3 d2!p! A | A3 A3 | A2 A A3 | z2 G!<(! B3- | B2 _c B B c!<)! |!f! f2 f _e e e | d3- d2 c | %26
w: an- sikt, men|hvor hans|an- sikt var|lå rød|_ vår fa- ne. Far-|vel, far- vel ka- me-|rat. _ Fra|
 f2 f _e e e | d3 d2 z |!ff! =e3!<(! d3!<)! | a3- a2 d |!mp! d3 =e3 | A3 A3 | %32
w: nu av ly- ser ditt|an- sikt|som vårt|flagg, _ det|ly- ser|som vårt|
[Q:1/4=52]"^Lento"!pp! A3 A3 | A6 |] %34
w: rø- de|flagg.|
V:2
!p! A3 A3 | A3 A3 |!<(! c2 c c2 c!<)! |!>(! c3 c2 c!>)! |!p! A3 A3 | A3 A3 | z2 G!<(! B3- | %7
w: Da de|så ham|tok hans ka- me-|ra- ter en|duk og|dek- ket|hans søn-|
 B2 c!<)!!>(! d2 c | A3!>)!!p! A2 A | A3 A3 |!<(! c2 c c2 c!<)! |!>(! c3 c3!>)! |!p! A3 A2 A | %13
w: * der- skut- te|an- sikt, men|du- ken|snart blev far- vet|av hans|blod, av hans|
 A2 A A3 | z2 G!<(! (B3- | B2 _c B2) c!<)! |!mf! c3 c3 | B3- B2 c | c2 c c2 c | B3 B2!p! A | %20
w: rø- de blod,|hans blod.|_ _ _ Så|lå han|der, _ han|had- de in- tet|an- sikt, men|
 A3 A3 | A2 A A3 | z2 G!<(! B3- | B2 _c B B c!<)! |!f! =c2 c c c c | B3- B2 c | c2 c c c c | %27
w: hvor hans|an- sikt var|lå rød|_ vår fa- ne. Far-|vel, far- vel ka- me-|rat. _ Fra|nu av ly- ser ditt|
 d3 d2 z |!ff! e3!<(! d3!<)! | _e3- e2 d |!mp! d3 =e3 | A3 A3 |!pp! A3 G3 | F6 |] %34
w: an- sikt|som vårt|flagg, _ det|ly- ser|som vårt|rø- de|flagg.|
V:3
!p! F,3 G,3 | F,3 E,3 |!<(! A,3 B,3!<)! |!>(! A,2 A, G, G, G,!>)! |!p! G,3 F,3 | G,3 F,3 | %6
w: Da de|så ham|tok hans|ka- me- ra- ter en|duk og|dek- ket|
 z2 G,!<(! G,3- | G,2 A,!<)!!>(! B,2 A, | F,3!>)!!p! G,2 G, | F,3 E,3 |!<(! A,3 B,3!<)! | %11
w: hans søn-|* der- skut- te|an- sikt, men|du- ken|snart blev|
!>(! A,2 A, G,2 G,!>)! |!p! G,3 F,2 z | (G,3 F,2) z | z2 G,!<(! (G,3- | G,2 _A, G,2) A,!<)! | %16
w: far- vet av hans|blod, _|blod, _|hans blod.|_ _ _ Så|
!mf! A,3 A,3 | B,3- B,2 A, | A,2 A, A,2 A, | B,3 B,2!p! A, | G,3 F,3 | G,2 G, F,3 | %22
w: lå han|der, _ han|had- de in- tet|an- sikt, men|hvor hans|an- sikt var|
 z2 G,!<(! G,3- | G,2 _A, G, G, A,!<)! |!f! A,2 A, A, A, A, | B,3- B,2 A, | A,2 A, A, A, A, | %27
w: lå rød|_ vår fa- ne. Far-|vel, far- vel ka- me-|rat. _ Fra|nu av ly- ser ditt|
 B,3 B,2 z |!ff! B,3!<(! B,3!<)! | A,3- A,2 B, |!mp! B,3 B,3 | F,3 F,3 |!pp! E,3 E,3 | F,6 |] %34
w: an- sikt|som vårt|flagg, _ det|ly- ser|som vårt|rø- de|flagg.|
V:4
!p! D,3 E,3 | D,3 A,,3 |!<(! F,3 _G,3!<)! |!>(! F,2 F, C, C, C,!>)! |!p! E,3 D,3 | ^C,3 =B,,2 F, | %6
w: Da de|så ham|tok hans|ka- me- ra- ter en|duk og|dek- ket hans|
 (G,3!<(! F,2) E, | F,3!<)!!>(! E,3 | D,3!>)!!p! E,2 E, | D,3 A,,3 |!<(! F,3 _G,3!<)! | %11
w: søn- * der-|skut- te|an- sikt, men|du- ken|snart blev|
!>(! F,2 F, C,2 C,!>)! |!p! E,3 D,2 z | (^C,3 =B,,2) F, | G,3!<(! (F,2 E,) | (F,3 E,3)!<)! | %16
w: far- vet av hans|blod, _|blod, _ hans|rø- de _|blod. _|
 z2!mf! C, F,3 | (G,2 F,) =E,2 z | z2 C, F,2 F, | G,2 F, E, E,!p! F, | E,3 D,3 | ^C,2 C, =B,,2 F, | %22
w: Så lå|han _ der|han had- de|in- tet an- sikt, men|hvor hans|an- sikt var lå|
 G,3!<(! (F,2 E,) | F,3 E,3!<)! | z2!f! C, F,3 | G,2 F, =E,2 z | z2 C, F,2 F, | G, G, F, =E,2 E, | %28
w: rød vår _|fa- ne.|Far- vel|ka- me- rat|fra nu av|ly- ser ditt an- sikt|
!ff! D,3!<(! E,3!<)! | F,3- F,2 E, |!mp! E,3 D,3 | D,3 D,3 |!pp! A,,3 A,,3 | [D,,D,]6 |] %34
w: som vårt|flagg, _ det|ly- ser|som vårt|rø- de|flagg.|

